Origami/64x64/apps/fritzing.svg

<svg width="64" height="64" version="1" xmlns="http://www.w3.org/2000/svg">
 <path d="m39.059965 9.0177466c-1.154212-0.043839-2.686665-0.0260668-4.458117 0.2831906-1.700185 0.2968031-4.128106 0.9442758-6.369854 2.7459728-2.634064 2.117004-4.231598 5.276091-4.231598 8.962493v0.02148c-2.157601 0.0022-4.533583 0.991112-5.963683 2.587777-1.453237 1.622499-2.036713 3.548646-2.036713 5.388437s0.583476 3.765938 2.036713 5.388434c0.560373 0.625639 1.347541 1.063844 2.128492 1.484309-1.281139 2.113953-2.165594 4.493801-2.165594 7.122732 0 7.660037 6.338849 13.997428 13.997275 13.997428 7.658427 0 13.995323-6.33739 13.995323-13.997428 0-2.631071-0.884413-5.013628-2.167547-7.128591 0.777009-0.419656 1.562682-0.85546 2.120682-1.47845 1.453236-1.622496 2.03476-3.548643 2.03476-5.388434s-0.581524-3.765938-2.03476-5.388433c-0.179842-0.200788-0.475994-0.295101-0.683461-0.476542 1.57203-1.389589 2.408881-3.150878 2.655733-4.919704 0.254955-1.826894-0.0574-3.819899-1.281001-5.632563-1.216135-1.801604-3.480782-3.1299535-5.645385-3.402194-0.124472-0.0177494-0.865972-0.129459-1.931265-0.1699144z" style="opacity:.2"/>
 <path d="m39.059965 8.0177466c-1.154212-0.043839-2.686665-0.0260668-4.458117 0.2831906-1.700185 0.2968031-4.128106 0.9442754-6.369854 2.7459728-2.634064 2.117004-4.231598 5.276091-4.231598 8.962493v0.02148c-2.157601 0.0022-4.533583 0.991112-5.963683 2.587777-1.453237 1.622499-2.036713 3.548646-2.036713 5.388437s0.583476 3.765938 2.036713 5.388434c0.560373 0.625639 1.347541 1.063844 2.128492 1.484309-1.281139 2.113953-2.165594 4.493801-2.165594 7.122732 0 7.660037 6.338849 13.997428 13.997275 13.997428 7.658427 0 13.995323-6.33739 13.995323-13.997428 0-2.631071-0.884413-5.013628-2.167547-7.128591 0.777009-0.419656 1.562682-0.85546 2.120682-1.47845 1.453236-1.622496 2.03476-3.548643 2.03476-5.388434s-0.581524-3.765938-2.03476-5.388433c-0.179842-0.200788-0.475994-0.295101-0.683461-0.476542 1.57203-1.389589 2.408881-3.150878 2.655733-4.919704 0.254955-1.826894-0.0574-3.819899-1.281001-5.632563-1.216135-1.8016038-3.480782-3.1299535-5.645385-3.402194-0.124472-0.0177494-0.865972-0.129459-1.931265-0.1699144z" style="fill:#c2352a"/>
 <path d="m38.836818 15.012245c-0.851857-0.03235-2.003327-0.0115-3.199015 0.19721-1.195687 0.208701-2.500815 0.594357-3.644299 1.513239-1.143483 0.918882-1.992061 2.500733-1.992061 4.285883v5.998285h-5.980088a1.9932353 1.9996281 0 1 0 0 3.998856h5.980088v4.260501c-3.449065 0.888633-6.00157 4.010285-6.00157 7.736068 0 4.417015 3.581493 7.997713 7.99949 7.997713 4.417996 0 7.99949-3.580698 7.99949-7.997713 0-3.729247-2.557389-6.852737-6.011336-7.738021v-4.258548h5.978135a1.9932353 1.9996281 0 1 0 0 -3.998856h-5.978135v-5.998285c0-0.722232 0.146722-0.881438 0.498016-1.163729 0.351293-0.282294 1.038471-0.557893 1.835821-0.697067 1.594699-0.278347 3.368925-0.05858 3.368925-0.05858a1.9932353 1.9996281 0 1 0 0.5527 -3.959801s-0.554306-0.08481-1.406161-0.117155zm-6.837455 25.990614c1.104499 0 1.999873 0.895175 1.999873 1.999428s-0.895374 1.999428-1.999873 1.999428-1.999873-0.895175-1.999873-1.999428 0.895374-1.999428 1.999873-1.999428z" style="opacity:.2"/>
 <path d="m38.836818 14.012245c-0.851857-0.03235-2.003327-0.0115-3.199015 0.19721-1.195687 0.208701-2.500815 0.594357-3.644299 1.513239-1.143483 0.918882-1.992061 2.500733-1.992061 4.285883v5.998285h-5.980088a1.9932353 1.9996281 0 1 0 0 3.998856h5.980088v4.260501c-3.449065 0.888633-6.00157 4.010285-6.00157 7.736068 0 4.417015 3.581493 7.997713 7.99949 7.997713 4.417996 0 7.99949-3.580698 7.99949-7.997713 0-3.729247-2.557389-6.852737-6.011336-7.738021v-4.258548h5.978135a1.9932353 1.9996281 0 1 0 0 -3.998856h-5.978135v-5.998285c0-0.722232 0.146722-0.881438 0.498016-1.163729 0.351293-0.282294 1.038471-0.557893 1.835821-0.697067 1.594699-0.278347 3.368925-0.05858 3.368925-0.05858a1.9932353 1.9996281 0 1 0 0.5527 -3.959801s-0.554306-0.08481-1.406161-0.117155zm-6.837455 25.990614c1.104499 0 1.999873 0.895175 1.999873 1.999428s-0.895374 1.999428-1.999873 1.999428-1.999873-0.895175-1.999873-1.999428 0.895374-1.999428 1.999873-1.999428z" style="fill:#ffffff"/>
 <path d="m38.125 8c-1.000972 0.0010003-2.194848 0.0688382-3.523438 0.3007812-1.700184 0.2968031-4.127392 0.9443964-6.36914 2.7460938-2.634064 2.117004-4.232422 5.276489-4.232422 8.962891v0.021484c-2.157601 0.0022-4.532791 0.991226-5.962891 2.587891-1.453237 1.622499-2.037109 3.54888-2.037109 5.388671 0 0.165838 0.00984 0.333045 0.019531 0.5 0.097824-1.685234 0.695335-3.412424 2.017578-4.888671 1.4301-1.596665 3.80529-2.585691 5.962891-2.587891v-0.021484c0-3.686402 1.598358-6.845887 4.232422-8.962891 2.241748-1.801697 4.668956-2.4492907 6.36914-2.7460938 1.771453-0.3092574 3.304773-0.3270421 4.458985-0.2832031 1.065293 0.0404554 1.807168 0.1521725 1.931641 0.1699219 2.164602 0.2722405 4.428396 1.60074 5.644531 3.402344 0.86601 1.282923 1.268724 2.655325 1.34375 3.996094 0.106392-1.646912-0.260599-3.391495-1.34375-4.996094-1.216135-1.8016041-3.479929-3.1301035-5.644531-3.402344-0.124473-0.0177494-0.866348-0.1294665-1.931641-0.1699219-0.288553-0.0109597-0.60189-0.0179115-0.935547-0.0175781zm7.732422 14.554688c-0.186538 0.201248-0.382477 0.39941-0.595703 0.58789 0.207467 0.181441 0.503751 0.275775 0.683593 0.476563 1.322243 1.476244 1.918094 3.203437 2.015626 4.888671 0.009662-0.166955 0.019531-0.334162 0.019531-0.5 0-1.839791-0.581921-3.766176-2.035157-5.388671-0.023713-0.026476-0.060602-0.041237-0.08789-0.064453zm-1.603516 13.068359c-0.14529 0.081274-0.283435 0.17101-0.429687 0.25 1.193131 1.966614 2.031386 4.168015 2.144531 6.582031 0.005002-0.151693 0.023438-0.300339 0.023438-0.453125 0-2.325404-0.691891-4.454926-1.738282-6.378906zm-24.517578 0.007812c-1.044327 1.922169-1.736328 4.0485-1.736328 6.371094 0 0.152786 0.018434 0.301432 0.023438 0.453125 0.113346-2.411532 0.951481-4.610794 2.142578-6.576172-0.146036-0.078625-0.284741-0.167071-0.429688-0.248047z" style="fill:#ffffff;opacity:.2"/>
</svg>

<svg xmlns="http://www.w3.org/2000/svg" width="64" height="64" version="1">
 <path style="opacity:0.2" d="M 39.059965,9.0177466 C 37.905753,8.9739076 36.3733,8.9916798 34.601848,9.3009372 32.901663,9.5977403 30.473742,10.245213 28.231994,12.04691 c -2.634064,2.117004 -4.231598,5.276091 -4.231598,8.962493 v 0.02148 c -2.157601,0.0022 -4.533583,0.991112 -5.963683,2.587777 C 16.583476,25.241159 16,27.167306 16,29.007097 c 0,1.839791 0.583476,3.765938 2.036713,5.388434 0.560373,0.625639 1.347541,1.063844 2.128492,1.484309 -1.281139,2.113953 -2.165594,4.493801 -2.165594,7.122732 C 17.999611,50.662609 24.33846,57 31.996886,57 c 7.658427,0 13.995323,-6.33739 13.995323,-13.997428 0,-2.631071 -0.884413,-5.013628 -2.167547,-7.128591 0.777009,-0.419656 1.562682,-0.85546 2.120682,-1.47845 1.453236,-1.622496 2.03476,-3.548643 2.03476,-5.388434 0,-1.839791 -0.581524,-3.765938 -2.03476,-5.388433 -0.179842,-0.200788 -0.475994,-0.295101 -0.683461,-0.476542 1.57203,-1.389589 2.408881,-3.150878 2.655733,-4.919704 0.254955,-1.826894 -0.0574,-3.819899 -1.281001,-5.632563 C 45.42048,10.788251 43.155833,9.4599015 40.99123,9.187661 40.866758,9.1699116 40.125258,9.058202 39.059965,9.0177466 Z"/>
 <path style="fill:#c2352a" d="M 39.059965,8.0177466 C 37.905753,7.9739076 36.3733,7.9916798 34.601848,8.3009372 32.901663,8.5977403 30.473742,9.2452126 28.231994,11.04691 c -2.634064,2.117004 -4.231598,5.276091 -4.231598,8.962493 v 0.02148 c -2.157601,0.0022 -4.533583,0.991112 -5.963683,2.587777 C 16.583476,24.241159 16,26.167306 16,28.007097 c 0,1.839791 0.583476,3.765938 2.036713,5.388434 0.560373,0.625639 1.347541,1.063844 2.128492,1.484309 -1.281139,2.113953 -2.165594,4.493801 -2.165594,7.122732 C 17.999611,49.662609 24.33846,56 31.996886,56 c 7.658427,0 13.995323,-6.33739 13.995323,-13.997428 0,-2.631071 -0.884413,-5.013628 -2.167547,-7.128591 0.777009,-0.419656 1.562682,-0.85546 2.120682,-1.47845 1.453236,-1.622496 2.03476,-3.548643 2.03476,-5.388434 0,-1.839791 -0.581524,-3.765938 -2.03476,-5.388433 -0.179842,-0.200788 -0.475994,-0.295101 -0.683461,-0.476542 1.57203,-1.389589 2.408881,-3.150878 2.655733,-4.919704 0.254955,-1.826894 -0.0574,-3.819899 -1.281001,-5.632563 C 45.42048,9.7882512 43.155833,8.4599015 40.99123,8.187661 40.866758,8.1699116 40.125258,8.058202 39.059965,8.0177466 Z"/>
 <path style="opacity:0.2" d="m 38.836818,15.012245 c -0.851857,-0.03235 -2.003327,-0.0115 -3.199015,0.19721 -1.195687,0.208701 -2.500815,0.594357 -3.644299,1.513239 -1.143483,0.918882 -1.992061,2.500733 -1.992061,4.285883 v 5.998285 h -5.980088 a 1.9932353,1.9996281 0 1 0 0,3.998856 h 5.980088 v 4.260501 c -3.449065,0.888633 -6.00157,4.010285 -6.00157,7.736068 0,4.417015 3.581493,7.997713 7.99949,7.997713 4.417996,0 7.99949,-3.580698 7.99949,-7.997713 0,-3.729247 -2.557389,-6.852737 -6.011336,-7.738021 v -4.258548 h 5.978135 a 1.9932353,1.9996281 0 1 0 0,-3.998856 h -5.978135 v -5.998285 c 0,-0.722232 0.146722,-0.881438 0.498016,-1.163729 0.351293,-0.282294 1.038471,-0.557893 1.835821,-0.697067 1.594699,-0.278347 3.368925,-0.05858 3.368925,-0.05858 a 1.9932353,1.9996281 0 1 0 0.5527,-3.959801 c 0,0 -0.554306,-0.08481 -1.406161,-0.117155 z m -6.837455,25.990614 c 1.104499,0 1.999873,0.895175 1.999873,1.999428 0,1.104253 -0.895374,1.999428 -1.999873,1.999428 -1.104499,0 -1.999873,-0.895175 -1.999873,-1.999428 0,-1.104253 0.895374,-1.999428 1.999873,-1.999428 z"/>
 <path style="fill:#ffffff" d="m 38.836818,14.012245 c -0.851857,-0.03235 -2.003327,-0.0115 -3.199015,0.19721 -1.195687,0.208701 -2.500815,0.594357 -3.644299,1.513239 -1.143483,0.918882 -1.992061,2.500733 -1.992061,4.285883 v 5.998285 h -5.980088 a 1.9932353,1.9996281 0 1 0 0,3.998856 h 5.980088 v 4.260501 c -3.449065,0.888633 -6.00157,4.010285 -6.00157,7.736068 0,4.417015 3.581493,7.997713 7.99949,7.997713 4.417996,0 7.99949,-3.580698 7.99949,-7.997713 0,-3.729247 -2.557389,-6.852737 -6.011336,-7.738021 v -4.258548 h 5.978135 a 1.9932353,1.9996281 0 1 0 0,-3.998856 h -5.978135 v -5.998285 c 0,-0.722232 0.146722,-0.881438 0.498016,-1.163729 0.351293,-0.282294 1.038471,-0.557893 1.835821,-0.697067 1.594699,-0.278347 3.368925,-0.05858 3.368925,-0.05858 a 1.9932353,1.9996281 0 1 0 0.5527,-3.959801 c 0,0 -0.554306,-0.08481 -1.406161,-0.117155 z m -6.837455,25.990614 c 1.104499,0 1.999873,0.895175 1.999873,1.999428 0,1.104253 -0.895374,1.999428 -1.999873,1.999428 -1.104499,0 -1.999873,-0.895175 -1.999873,-1.999428 0,-1.104253 0.895374,-1.999428 1.999873,-1.999428 z"/>
 <path style="opacity:0.2;fill:#ffffff" d="M 38.125 8 C 37.124028 8.0010003 35.930152 8.0688382 34.601562 8.3007812 C 32.901378 8.5975843 30.47417 9.2451776 28.232422 11.046875 C 25.598358 13.163879 24 16.323364 24 20.009766 L 24 20.03125 C 21.842399 20.03345 19.467209 21.022476 18.037109 22.619141 C 16.583872 24.24164 16 26.168021 16 28.007812 C 16 28.17365 16.00984 28.340857 16.019531 28.507812 C 16.117355 26.822578 16.714866 25.095388 18.037109 23.619141 C 19.467209 22.022476 21.842399 21.03345 24 21.03125 L 24 21.009766 C 24 17.323364 25.598358 14.163879 28.232422 12.046875 C 30.47417 10.245178 32.901378 9.5975843 34.601562 9.3007812 C 36.373015 8.9915238 37.906335 8.9737391 39.060547 9.0175781 C 40.12584 9.0580335 40.867715 9.1697506 40.992188 9.1875 C 43.15679 9.4597405 45.420584 10.78824 46.636719 12.589844 C 47.502729 13.872767 47.905443 15.245169 47.980469 16.585938 C 48.086861 14.939026 47.71987 13.194443 46.636719 11.589844 C 45.420584 9.7882399 43.15679 8.4597405 40.992188 8.1875 C 40.867715 8.1697506 40.12584 8.0580335 39.060547 8.0175781 C 38.771994 8.0066184 38.458657 7.9996666 38.125 8 z M 45.857422 22.554688 C 45.670884 22.755936 45.474945 22.954098 45.261719 23.142578 C 45.469186 23.324019 45.76547 23.418353 45.945312 23.619141 C 47.267555 25.095385 47.863406 26.822578 47.960938 28.507812 C 47.9706 28.340857 47.980469 28.17365 47.980469 28.007812 C 47.980469 26.168021 47.398548 24.241636 45.945312 22.619141 C 45.921599 22.592665 45.88471 22.577904 45.857422 22.554688 z M 44.253906 35.623047 C 44.108616 35.704321 43.970471 35.794057 43.824219 35.873047 C 45.01735 37.839661 45.855605 40.041062 45.96875 42.455078 C 45.973752 42.303385 45.992188 42.154739 45.992188 42.001953 C 45.992188 39.676549 45.300297 37.547027 44.253906 35.623047 z M 19.736328 35.630859 C 18.692001 37.553028 18 39.679359 18 42.001953 C 18 42.154739 18.018434 42.303385 18.023438 42.455078 C 18.136784 40.043546 18.974919 37.844284 20.166016 35.878906 C 20.01998 35.800281 19.881275 35.711835 19.736328 35.630859 z"/>
</svg>
